X: 86
T: Missa Ista est speciosa / Sanctus
N: Derived from Rue1018d-Missa_Ista_est_speciosa-Sanctus.krn
C: Pierre de la Rue
%%abc-version 2.0
%%abcx-abcm2ps-target-version 5.9.1 (29 Sep 2008)
%%abc-creator hum2abc beta
%%abcx-conversion-date 2019/02/17 08:01:13
%%abc-edited-by Jesse Rodin
%%abc-edited-by Chris Gage 05-16-2013
%%abcx-initial-encoding-date 2013/08/03/
%%humdrum-veritas 4217812004
%%humdrum-veritas-data 2161539295
%%linebreak <none>
%%barnumbers 0
L: 1/4
M: 3/1
Q: 1/2=120
V: 1 clef=treble
V: 2 clef=treble-8
V: 3 clef=treble-8
V: 4 clef=bass
V: 5 clef=bass
K: C
[V:1] E8G4 | 
[V:2] e4e2c4BA | 
[V:3] z12 | 
[V:4] z12 | 
[V:5] z12 | 
[V:1] G4A6F2- | 
[V:2] B4A4z2d2- | 
[V:3] z12 | 
[V:4] z12 | 
[V:5] z12 | 
[V:1] F2EDE4D4 | 
[V:2] d2cBc4d4 | 
[V:3] z12 | 
[V:4] z12 | 
[V:5] z12 | 
[V:1] z2G4FEF4 | 
[V:2] d2B4AGA4 | 
[V:3] z12 | 
[V:4] z12 | 
[V:5] z12 | 
[V:1] G2E4DCDEFG | 
[V:2] G2c4BABcde | 
[V:3] z12 | 
[V:4] z12 | 
[V:5] z12 | 
[V:1] A2G4c4B2 | 
[V:2] f2e4dcd4 | 
[V:3] z12 | 
[V:4] z12 | 
[V:5] z12 | 
[V:1] c3BA2G4FE | 
[V:2] c8z2c2 | 
[V:3] z12 | 
[V:4] z12 | 
[V:5] z12 | 
[V:1] F4E8 | 
[V:2] d2B2c2A4GF | 
[V:3] z12 | 
[V:4] z12 | 
[V:5] z12 | 
[V:1] z2G2A2F2G2E2- | 
[V:2] E2G2F4E4 | 
[V:3] z12 | 
[V:4] z12 | 
[V:5] z12 | 
[V:1] E2DCB,2E3FG2 | 
[V:2] G8G2EF | 
[V:3] B12- | 
[V:4] E,8E,4 | 
[V:5] E,,8E,,4 | 
[V:1] EFGAB2A3^GG2 | 
[V:2] GAB2E2e2e4 | 
[V:3] B12 | 
[V:4] E,8E,4 | 
[V:5] E,,8E,,4 | 
[V:1] A8z4 | 
[V:2] c4z4z4 | 
[V:3] A8B4 | 
[V:4] F,2E,3D,E,F,G,2E,2- | 
[V:5] A,,4A,,B,,C,D,G,,2G,2 | 
[V:1] z12 | 
[V:2] z12 | 
[V:3] B12- | 
[V:4] E,F,G,2E,2G,3A,B,2 | 
[V:5] E,3F,G,2E,2G,2G,,2- | 
[V:1] z12 | 
[V:2] z12 | 
[V:3] B4z4z4 | 
[V:4] E,F,G,A,B,2A,4^G,2 | 
[V:5] G,,A,,B,,C,D,C,B,,A,,B,,4 | 
[V:1] z12 | 
[V:2] z12 | 
[V:3] c8A4 | 
[V:4] A,8z2F,2- | 
[V:5] A,,8z2D,2- | 
[V:1] z12 | 
[V:2] z12 | 
[V:3] B4G2A3GFE | 
[V:4] F,2D,2E,2C,4D,2- | 
[V:5] D,2B,,2C,4A,,2B,,2- | 
[V:1] z12 | 
[V:2] z12 | 
[V:3] G4E2F4D2 | 
[V:4] D,2B,,2C,2A,,4B,,2- | 
[V:5] B,,2G,,2A,,3G,,F,,E,,G,,2- | 
[V:1] z12 | 
[V:2] z12 | 
[V:3] E2F3EE4D2 | 
[V:4] B,,2C,3B,,B,,4A,,2 | 
[V:5] G,,2A,,2E,,4F,,4 | 
[V:1] G6G2G4 | 
[V:2] e6e2e4 | 
[V:3] E12 | 
[V:4] B,,12 | 
[V:5] E,,12 | 
[V:1] E3FG2A4GF | 
[V:2] c4B2A2c4- | 
[V:3] z12 | 
[V:4] z12 | 
[V:5] z12 | 
[V:1] EDF4E4DC | 
[V:2] c2dcBAc4BA | 
[V:3] z12 | 
[V:4] z12 | 
[V:5] z12 | 
[V:1] B,8z4 | 
[V:2] G8z4 | 
[V:3] E12 | 
[V:4] B,,6B,,2B,,4 | 
[V:5] E,,6E,,2E,,4 | 
[V:1] B6B2B4 | 
[V:2] d6d2d4 | 
[V:3] D8G4 | 
[V:4] B,,8D,4 | 
[V:5] G,,8B,,4 | 
[V:1] c4c2A4A2 | 
[V:2] c8A2c2- | 
[V:3] A8c4- | 
[V:4] E,4E,2C,4F,2 | 
[V:5] A,,8F,,4 | 
[V:1] G3FE2D4G2 | 
[V:2] cBG3ABcd4 | 
[V:3] c4B8 | 
[V:4] E,3F,G,4G,3F, | 
[V:5] C,4G,,4G,,A,,B,,C, | 
[V:1] F2E3DD2E4 | 
[V:2] z4z4z2c2 | 
[V:3] A8A4 | 
[V:4] D,2E,2F,4E,4- | 
[V:5] D,2A,,2D,4A,,4 | 
[V:1] z2E2G6FE | 
[V:2] e4d2e4dc | 
[V:3] B8z4 | 
[V:4] E,4z2E,2G,2G,2- | 
[V:5] z12 | 
[V:1] DEFEDCC4B,2 | 
[V:2] BcdcA2G4F2 | 
[V:3] z12 | 
[V:4] G,F,D,E,F,E,D,C,D,4 | 
[V:5] z12 | 
[V:1] C8z4 | 
[V:2] G8z2EF | 
[V:3] e12 | 
[V:4] C,2E,3F,G,2E,2G,2- | 
[V:5] C,6C,2C,4 | 
[V:1] G8G4 | 
[V:2] GABcd2c3BB2 | 
[V:3] d12 | 
[V:4] G,2F,E,D,4D,4 | 
[V:5] G,,8G,,4 | 
[V:1] E3FG2A4G2 | 
[V:2] c2e4c2d2B2 | 
[V:3] c8B4 | 
[V:4] E,4z4z4 | 
[V:5] C,3D,E,2F,2D,2E,2 | 
[V:1] A2E2F3DE2F2 | 
[V:2] c4d4z4 | 
[V:3] A8z2A2 | 
[V:4] E,4D,2D,4C,2 | 
[V:5] A,,4D,3C,A,,4 | 
[V:1] G3EF2G2A2B2 | 
[V:2] d6G2c2B2 | 
[V:3] B3GA2B2c2d2- | 
[V:4] D,4D,4C,2G,2 | 
[V:5] G,,4D,2B,,2A,,2G,,2 | 
[V:1] c4B2G4^F2 | 
[V:2] A4B4z4 | 
[V:3] d2c2d2B2c4 | 
[V:4] E,4z2G,2A,4 | 
[V:5] A,,4G,,4z4 | 
[V:1] G12 | 
[V:2] z2G3AB2G4 | 
[V:3] B2e4d2c4 | 
[V:4] G,4C,2D,2E,4 | 
[V:5] G,,2C,4B,,2C,4 | 
[V:1] G12 ||  
[V:2] G12 ||  
[V:3] B12 ||  
[V:4] D,12 ||  
[V:5] G,,12 ||  
[V:1]  [K:C] [K:clef=treble][M:2/1]z8 | 
[V:2]  [K:C] [K:clef=treble-8][M:2/1]G3AB2c2- | 
[V:3]  [K:C] [K:clef=treble-8][M:2/1]z8 | 
[V:4]  [K:C] [K:clef=bass][M:2/1]z8 | 
[V:5]  [K:C] [K:clef=bass][M:2/1]z8 | 
[V:1] E3FG2A2- | 
[V:2] c2BAB2c2- | 
[V:3] z8 | 
[V:4] z8 | 
[V:5] z8 | 
[V:1] A2GFG2A2- | 
[V:2] c2BAB2c2 | 
[V:3] z8 | 
[V:4] z8 | 
[V:5] z8 | 
[V:1] A2GFG2A2 | 
[V:2] F4z2F2- | 
[V:3] z8 | 
[V:4] z8 | 
[V:5] z8 | 
[V:1] D4z2D2- | 
[V:2] F2G2A2B2- | 
[V:3] z8 | 
[V:4] z8 | 
[V:5] z8 | 
[V:1] D2E2F2G2- | 
[V:2] B2AGA2B2- | 
[V:3] z8 | 
[V:4] z8 | 
[V:5] z8 | 
[V:1] G2FEF2G2- | 
[V:2] B2AGA2B2 | 
[V:3] z8 | 
[V:4] z8 | 
[V:5] z8 | 
[V:1] G2FEF2G2 | 
[V:2] E4z2E2 | 
[V:3] z8 | 
[V:4] z8 | 
[V:5] z8 | 
[V:1] C4z2C2 | 
[V:2] E3FG2A2- | 
[V:3] z8 | 
[V:4] z8 | 
[V:5] z8 | 
[V:1] C3DE2F2- | 
[V:2] A2GFG2A2 | 
[V:3] z8 | 
[V:4] z8 | 
[V:5] z8 | 
[V:1] F2EDE2F2 | 
[V:2] D4z2d2- | 
[V:3] z8 | 
[V:4] z8 | 
[V:5] z8 | 
[V:1] D2A4GF | 
[V:2] d2cBc2d2 | 
[V:3] z8 | 
[V:4] z8 | 
[V:5] z8 | 
[V:1] G2A2F2E2- | 
[V:2] B2A4G2 | 
[V:3] z8 | 
[V:4] z8 | 
[V:5] z8 | 
[V:1] EDD2E2G2- | 
[V:2] A2F2E3F | 
[V:3] z8 | 
[V:4] z8 | 
[V:5] z8 | 
[V:1] GFDEF2E2- | 
[V:2] GABcd2c2- | 
[V:3] z8 | 
[V:4] z8 | 
[V:5] z8 | 
[V:1] E2DCB,4 | 
[V:2] cBA4^G2 | 
[V:3] z8 | 
[V:4] z8 | 
[V:5] z8 | 
[V:1] A,8 | 
[V:2] A8- | 
[V:3] z8 | 
[V:4] z8 | 
[V:5] z8 | 
[V:1] z4E4 | 
[V:2] A8 | 
[V:3] z8 | 
[V:4] z8 | 
[V:5] z8 | 
[V:1] F4G4 | 
[V:2] z4B4 | 
[V:3] z8 | 
[V:4] z8 | 
[V:5] z8 | 
[V:1] A6GF | 
[V:2] c4d4 | 
[V:3] z8 | 
[V:4] z8 | 
[V:5] z8 | 
[V:1] GFEDC2c2 | 
[V:2] e6dc | 
[V:3] z8 | 
[V:4] z8 | 
[V:5] z8 | 
[V:1] B2A3^GG2 | 
[V:2] dcBAB4 | 
[V:3] z8 | 
[V:4] z8 | 
[V:5] z8 | 
[V:1] A2E2F2G2- | 
[V:2] A4z2B2 | 
[V:3] z8 | 
[V:4] z8 | 
[V:5] z8 | 
[V:1] GEF2D2E2 | 
[V:2] c2d3Bc2 | 
[V:3] z8 | 
[V:4] z8 | 
[V:5] z8 | 
[V:1] z2E2F2G2- | 
[V:2] A2E2z2B2 | 
[V:3] z8 | 
[V:4] z8 | 
[V:5] z8 | 
[V:1] GEF2D2E2- | 
[V:2] c2d3Bc2 | 
[V:3] z8 | 
[V:4] z8 | 
[V:5] z8 | 
[V:1] E2A,3B,CD | 
[V:2] A2c3BA2- | 
[V:3] z8 | 
[V:4] z8 | 
[V:5] z8 | 
[V:1] EFG4D2- | 
[V:2] A2GFEFGA | 
[V:3] z8 | 
[V:4] z8 | 
[V:5] z8 | 
[V:1] DEFGABc2- | 
[V:2] Bcd4cB | 
[V:3] z8 | 
[V:4] z8 | 
[V:5] z8 | 
[V:1] c2BAG2A2- | 
[V:2] A4z2A2 | 
[V:3] z8 | 
[V:4] z8 | 
[V:5] z8 | 
[V:1] A2G2A3F | 
[V:2] B2c4A2 | 
[V:3] z8 | 
[V:4] z8 | 
[V:5] z8 | 
[V:1] G2A3GFE | 
[V:2] B2c3BAG | 
[V:3] z8 | 
[V:4] z8 | 
[V:5] z8 | 
[V:1] F2E3DD2 | 
[V:2] AGFEF4 | 
[V:3] z8 | 
[V:4] z8 | 
[V:5] z8 | 
[V:1] E8 ||  
[V:2] E8 ||  
[V:3] z8 ||  
[V:4] z8 ||  
[V:5] z8 ||  
[V:1]  [K:C] [K:clef=treble][M:2/1]G8- | 
[V:2]  [K:C] [K:clef=treble-8][M:2/1]e8- | 
[V:3]  [K:C] [K:clef=treble-8][M:2/1]B8- | 
[V:4]  [K:C] [K:clef=bass][M:2/1]G,8- | 
[V:5]  [K:C] [K:clef=bass][M:2/1]E,8 | 
[V:1] G8 | 
[V:2] e8 | 
[V:3] B8 | 
[V:4] G,8 | 
[V:5] E,8 | 
[V:1] G8 | 
[V:2] e8 | 
[V:3] c8- | 
[V:4] G,8- | 
[V:5] C,8- | 
[V:1] c6BA | 
[V:2] e6dc | 
[V:3] c8 | 
[V:4] G,8 | 
[V:5] C,8 | 
[V:1] B8- | 
[V:2] B2d3cBA | 
[V:3] d8- | 
[V:4] G,6F,E, | 
[V:5] G,,8- | 
[V:1] B4BAGF | 
[V:2] G8 | 
[V:3] d8 | 
[V:4] D,4D,4 | 
[V:5] G,,8 | 
[V:1] E4E3F | 
[V:2] z2G2G4 | 
[V:3] c8- | 
[V:4] E,3F,G,2C,2 | 
[V:5] C,4C,3D, | 
[V:1] G2A3Bc2- | 
[V:2] E2F2E2A2 | 
[V:3] c8 | 
[V:4] C,8 | 
[V:5] E,2A,,2A,,4 | 
[V:1] c2BAB4 | 
[V:2] D4z2B2 | 
[V:3] d8 | 
[V:4] G,8 | 
[V:5] G,,8 | 
[V:1] A2A4^G2 | 
[V:2] c3de4 | 
[V:3] c4B4 | 
[V:4] E,8- | 
[V:5] A,,4E,,4 | 
[V:1] A8 | 
[V:2] e2c4BA | 
[V:3] A4z2A2 | 
[V:4] E,8 | 
[V:5] A,,8 | 
[V:1] z8 | 
[V:2] G4GABc | 
[V:3] E4G4- | 
[V:4] z8 | 
[V:5] z2C,4B,,A,, | 
[V:1] z8 | 
[V:2] d6cB | 
[V:3] G2FED4 | 
[V:4] z8 | 
[V:5] G,,4G,,A,,B,,C, | 
[V:1] z8 | 
[V:2] A4ABcd | 
[V:3] DEFGA4- | 
[V:4] z8 | 
[V:5] D,4A,,3B,, | 
[V:1] z8 | 
[V:2] e2d4^c2 | 
[V:3] A4G4 | 
[V:4] z8 | 
[V:5] C,2D,2E,4 | 
[V:1] A8 | 
[V:2] d8- | 
[V:3] A8- | 
[V:4] z4F,4- | 
[V:5] D,8- | 
[V:1] A4A4 | 
[V:2] d8 | 
[V:3] A8 | 
[V:4] F,4F,4 | 
[V:5] D,8 | 
[V:1] c6B2 | 
[V:2] z8 | 
[V:3] A8 | 
[V:4] E,4E,4 | 
[V:5] A,,8 | 
[V:1] A2GFE2F2- | 
[V:2] z8 | 
[V:3] A4A4 | 
[V:4] F,3E,C,2D,2- | 
[V:5] z8 | 
[V:1] F2E3DD2 | 
[V:2] z4A4 | 
[V:3] G2E2F4 | 
[V:4] D,2C,2D,4 | 
[V:5] z8 | 
[V:1] E4A4- | 
[V:2] c6BA | 
[V:3] E8- | 
[V:4] A,8- | 
[V:5] A,,8- | 
[V:1] A8 | 
[V:2] c2d2e4- | 
[V:3] E8 | 
[V:4] A,8 | 
[V:5] A,,8 | 
[V:1] G4F4 | 
[V:2] e4d4 | 
[V:3] z8 | 
[V:4] z4A,4- | 
[V:5] C,4D,4 | 
[V:1] E4z4 | 
[V:2] c6BA | 
[V:3] z8 | 
[V:4] A,4A,4 | 
[V:5] A,,8 | 
[V:1] z2A6 | 
[V:2] B2c4d2- | 
[V:3] z8 | 
[V:4] G,2F,E,F,4 | 
[V:5] z8 | 
[V:1] G2E2F4 | 
[V:2] dcc4B2 | 
[V:3] z8 | 
[V:4] E,2C,2D,4 | 
[V:5] z8 | 
[V:1] E2c6 | 
[V:2] c8 | 
[V:3] E8 | 
[V:4] C,8 | 
[V:5] z2A,,6 | 
[V:1] B2G2A4 | 
[V:2] z8 | 
[V:3] E4D4 | 
[V:4] z8 | 
[V:5] G,,2E,,2F,,4 | 
[V:1] G4z4 | 
[V:2] z2e4e2 | 
[V:3] E8 | 
[V:4] z4G,4- | 
[V:5] E,,8 | 
[V:1] z2G6 | 
[V:2] d2B2c2e2- | 
[V:3] G8 | 
[V:4] G,4C,4- | 
[V:5] z8 | 
[V:1] F2D2E4 | 
[V:2] edd4c2 | 
[V:3] A8- | 
[V:4] C,2D,2A,,4 | 
[V:5] z8 | 
[V:1] D4A4- | 
[V:2] d2d4d2 | 
[V:3] A8 | 
[V:4] D,8 | 
[V:5] z8 | 
[V:1] A4G4 | 
[V:2] c2A2B4 | 
[V:3] E8 | 
[V:4] z4G,4 | 
[V:5] z4E,,4 | 
[V:1] A4z4 | 
[V:2] A8 | 
[V:3] z4c4- | 
[V:4] F,3E,F,G,A,2- | 
[V:5] F,,3G,,A,,B,,C,2- | 
[V:1] z4A4 | 
[V:2] z8 | 
[V:3] c4c4 | 
[V:4] A,G,G,4^F,2 | 
[V:5] C,B,,A,,G,,A,,4 | 
[V:1] B2G2F2G2- | 
[V:2] d8 | 
[V:3] B3GA2B2 | 
[V:4] G,4D,4 | 
[V:5] G,,4z2G,,2 | 
[V:1] GFE2D3E | 
[V:2] c4d2G2 | 
[V:3] G2A2B3G | 
[V:4] z4D,4 | 
[V:5] C,3B,,G,,2B,,2 | 
[V:1] F2G3FE2- | 
[V:2] c2B2c2G2- | 
[V:3] A2B2G2c2- | 
[V:4] C,2D,2E,2C,2 | 
[V:5] A,,2G,,2C,4 | 
[V:1] E2DCD4 | 
[V:2] G2FED2G2- | 
[V:3] c2BAB4 | 
[V:4] D,4D,4 | 
[V:5] G,,8 | 
[V:1] E4A4- | 
[V:2] G2E2F2C2 | 
[V:3] c8 | 
[V:4] C,8- | 
[V:5] C,4F,,4- | 
[V:1] A8 | 
[V:2] F3GA4 | 
[V:3] c8 | 
[V:4] C,8 | 
[V:5] F,,4F,,4 | 
[V:1] G4F4 | 
[V:2] B2d3cA2 | 
[V:3] B4A4 | 
[V:4] z2D,2F,3E, | 
[V:5] G,,4D,4 | 
[V:1] G8 | 
[V:2] B4c4- | 
[V:3] G8 | 
[V:4] D,2G,3F,E,D, | 
[V:5] G,,4C,4- | 
[V:1] E4F4 | 
[V:2] c4c4 | 
[V:3] G4A4 | 
[V:4] C,8 | 
[V:5] C,4F,,4 | 
[V:1] D8 | 
[V:2] B8 | 
[V:3] G6FE | 
[V:4] z8 | 
[V:5] G,,3A,,B,,2C,2 | 
[V:1] D8 | 
[V:2] A8 | 
[V:3] F4F4 | 
[V:4] z4D,4 | 
[V:5] D,8 | 
[V:1] E8- | 
[V:2] z2e4d2 | 
[V:3] E8- | 
[V:4] C,4E,4- | 
[V:5] A,,8- | 
[V:1] E8- | 
[V:2] c2B2A4 | 
[V:3] E8 | 
[V:4] E,2D,2C,4 | 
[V:5] A,,8 | 
[V:1] E8 ||  
[V:2] B8 ||  
[V:3] E8 ||  
[V:4] B,,8 ||  
[V:5] E,,8 ||  
[V:1]  [K:C] [K:clef=treble][M:2/1]z8 | 
[V:2]  [K:C] [K:clef=treble-8][M:2/1]z4B4- | 
[V:3]  [K:C] [K:clef=treble-8][M:2/1]z8 | 
[V:4]  [K:C] [K:clef=bass][M:2/1]E,8 | 
[V:5]  [K:C] [K:clef=bass][M:2/1]z8 | 
[V:1] z8 | 
[V:2] B4d4 | 
[V:3] z8 | 
[V:4] G,4F,4 | 
[V:5] z8 | 
[V:1] z8 | 
[V:2] e4B2d2- | 
[V:3] z8 | 
[V:4] E,3F,G,A,B,2- | 
[V:5] z8 | 
[V:1] z8 | 
[V:2] dcBAB4 | 
[V:3] z8 | 
[V:4] B,A,A,4^G,2 | 
[V:5] z8 | 
[V:1] z8 | 
[V:2] A8 | 
[V:3] e8 | 
[V:4] A,4z2E,2- | 
[V:5] A,,8 | 
[V:1] z8 | 
[V:2] z8 | 
[V:3] e4e4 | 
[V:4] E,2F,2G,4 | 
[V:5] E,4E,4 | 
[V:1] z8 | 
[V:2] z8 | 
[V:3] c8 | 
[V:4] A,6G,2 | 
[V:5] F,6E,2 | 
[V:1] z8 | 
[V:2] z8 | 
[V:3] d8 | 
[V:4] F,2E,2D,3E, | 
[V:5] D,2C,2B,,3C, | 
[V:1] z8 | 
[V:2] z8 | 
[V:3] B4c4 | 
[V:4] F,2G,4E,2- | 
[V:5] D,2E,4A,,2- | 
[V:1] z8 | 
[V:2] z8 | 
[V:3] A4B2c2 | 
[V:4] E,2F,2D,2E,2 | 
[V:5] A,,2D,4C,2 | 
[V:1] z8 | 
[V:2] z8 | 
[V:3] B2A3^G^G2 | 
[V:4] F,2E,3D,D,2 | 
[V:5] D,C,B,,A,,B,,4 | 
[V:1] z8 | 
[V:2] z4e4- | 
[V:3] A8- | 
[V:4] E,8- | 
[V:5] A,,8- | 
[V:1] z8 | 
[V:2] e4c4 | 
[V:3] A8 | 
[V:4] E,8 | 
[V:5] A,,8 | 
[V:1] z8 | 
[V:2] B3cd2e2- | 
[V:3] z8 | 
[V:4] z8 | 
[V:5] z2E,2F,2E,2 | 
[V:1] z8 | 
[V:2] e2d2B2c2 | 
[V:3] z8 | 
[V:4] z8 | 
[V:5] C,2D,2E,4 | 
[V:1] z8 | 
[V:2] d3cA2G2- | 
[V:3] z8 | 
[V:4] z4z2G,2- | 
[V:5] D,2F,4E,2 | 
[V:1] z8 | 
[V:2] G2c3BB2 | 
[V:3] z4d4 | 
[V:4] G,2E,2F,4 | 
[V:5] C,3E,D,4 | 
[V:1] z8 | 
[V:2] c8 | 
[V:3] e4e4- | 
[V:4] G,4z2G,2 | 
[V:5] C,8 | 
[V:1] z8 | 
[V:2] z8 | 
[V:3] e2d2c2B2 | 
[V:4] C3B,A,2G,2 | 
[V:5] z8 | 
[V:1] z8 | 
[V:2] z8 | 
[V:3] A2G2F4 | 
[V:4] F,2E,3D,D,2 | 
[V:5] z8 | 
[V:1] z8 | 
[V:2] c6c2 | 
[V:3] E3FG2A2- | 
[V:4] E,8 | 
[V:5] C,6A,,2 | 
[V:1] z8 | 
[V:2] B4A4 | 
[V:3] A2G2A2c2- | 
[V:4] z4E,4 | 
[V:5] E,4A,,4 | 
[V:1] z8 | 
[V:2] d8 | 
[V:3] c2BAB4- | 
[V:4] G,4G,2G,2- | 
[V:5] G,,8 | 
[V:1] z8 | 
[V:2] d4B2c2- | 
[V:3] B4z4 | 
[V:4] G,2F,E,D,2C,2 | 
[V:5] G,,3A,,B,,2A,,2 | 
[V:1] z8 | 
[V:2] c2BAB2E2- | 
[V:3] z8 | 
[V:4] E,2F,2G,4- | 
[V:5] C,4G,,4 | 
[V:1] z8 | 
[V:2] E2B3cd2 | 
[V:3] z8 | 
[V:4] G,4G,4- | 
[V:5] G,,8 | 
[V:1] z8 | 
[V:2] e2d3^c^c2 | 
[V:3] z8 | 
[V:4] G,2F,2E,4 | 
[V:5] z8 | 
[V:1] z8 | 
[V:2] d8 | 
[V:3] z4B4 | 
[V:4] D,8 | 
[V:5] z4G,,4 | 
[V:1] z8 | 
[V:2] z8 | 
[V:3] A2B4G2- | 
[V:4] z8 | 
[V:5] D,4B,,4 | 
[V:1] z8 | 
[V:2] z8 | 
[V:3] G2c3BAG | 
[V:4] z8 | 
[V:5] E,6D,2 | 
[V:1] z8 | 
[V:2] z8 | 
[V:3] A2G4^F2 | 
[V:4] z8 | 
[V:5] C,2B,,2A,,4 | 
[V:1] z8 | 
[V:2] d8 | 
[V:3] G8- | 
[V:4] z4D,4 | 
[V:5] G,,8- | 
[V:1] z8 | 
[V:2] d4d4 | 
[V:3] G8 | 
[V:4] D,4D,4 | 
[V:5] G,,8 | 
[V:1] z8 | 
[V:2] B3cd2e2- | 
[V:3] z8 | 
[V:4] G,6F,E, | 
[V:5] z8 | 
[V:1] z8 | 
[V:2] e2d2e4- | 
[V:3] z8 | 
[V:4] F,2G,2C,4 | 
[V:5] z8 | 
[V:1] z8 | 
[V:2] e4c2d2- | 
[V:3] z8 | 
[V:4] z2G,2A,2B,2- | 
[V:5] z8 | 
[V:1] z8 | 
[V:2] d2cBA4 | 
[V:3] z8 | 
[V:4] B,A,G,4^F,2 | 
[V:5] z8 | 
[V:1] z8 | 
[V:2] G2B3AG2- | 
[V:3] d8 | 
[V:4] G,2D,2G,2B,2 | 
[V:5] G,,8 | 
[V:1] z8 | 
[V:2] G2^F2G4 | 
[V:3] d4d4 | 
[V:4] A,4G,2B,2- | 
[V:5] D,4G,,4 | 
[V:1] z8 | 
[V:2] z8 | 
[V:3] B3cd2e2- | 
[V:4] B,A,G,4E,2 | 
[V:5] G,,3A,,B,,2C,2- | 
[V:1] z8 | 
[V:2] z4z2G2 | 
[V:3] e2d2e4 | 
[V:4] F,4E,4 | 
[V:5] C,2B,,2C,3B,, | 
[V:1] z8 | 
[V:2] A2B3AG2- | 
[V:3] c2d3cB2 | 
[V:4] z8 | 
[V:5] A,,2G,,3A,,B,,C, | 
[V:1] z8 | 
[V:2] G2^F2G4 | 
[V:3] A4G2E2 | 
[V:4] z8 | 
[V:5] D,4z2G,,2 | 
[V:1] z8 | 
[V:2] z2B2c2d2- | 
[V:3] F2G4FE | 
[V:4] z8 | 
[V:5] A,,2G,,2E,,2F,,2 | 
[V:1] z8 | 
[V:2] dcB2A3B | 
[V:3] D2E3DD2 | 
[V:4] z8 | 
[V:5] G,,3A,,F,,4 | 
[V:1] z8 | 
[V:2] c2B2GABc | 
[V:3] E8- | 
[V:4] G,4G,2E,2- | 
[V:5] E,,8- | 
[V:1] z8 | 
[V:2] B2A3^G^G2 | 
[V:3] E8 | 
[V:4] E,2D,C,B,,4 | 
[V:5] E,,8 | 
[V:1] z8 | 
[V:2] A4e4 | 
[V:3] z8 | 
[V:4] A,,2C,3D,E,F, | 
[V:5] z2A,,4C,2- | 
[V:1] z8 | 
[V:2] e2c4c2 | 
[V:3] z8 | 
[V:4] G,2A,3G,F,E, | 
[V:5] C,2C,2A,,4 | 
[V:1] z8 | 
[V:2] d2B3AB2 | 
[V:3] z8 | 
[V:4] D,2G,3F,E,D, | 
[V:5] B,,3G,,G,,4 | 
[V:1] z8 | 
[V:2] c2A4A2- | 
[V:3] e4e2c2- | 
[V:4] C,4z2E,2- | 
[V:5] z2A,,4A,,2 | 
[V:1] z8 | 
[V:2] ABcAB2G2- | 
[V:3] c2c2d2B2- | 
[V:4] E,2G,4D,2- | 
[V:5] C,4G,,3A,, | 
[V:1] z8 | 
[V:2] G2B3AA2- | 
[V:3] BAB2c2A2 | 
[V:4] D,2E,4E,2- | 
[V:5] B,,2G,,2A,,4 | 
[V:1] z8 | 
[V:2] A2^G2A4 | 
[V:3] B4A4- | 
[V:4] E,2E,4F,2- | 
[V:5] E,,4A,,2D,2- | 
[V:1] z8 | 
[V:2] d8 | 
[V:3] A4G4 | 
[V:4] F,E,D,C,D,4 | 
[V:5] D,C,B,,A,,B,,4 | 
[V:1] z8 | 
[V:2] c8- | 
[V:3] A8- | 
[V:4] E,2A,3G,F,E, | 
[V:5] A,,8- | 
[V:1] z8 ||  
[V:2] c8 ||  
[V:3] A8 ||  
[V:4] F,4E,4 ||  
[V:5] A,,8 ||  



